X:31
T: Kikötöm a lovam
O: Oroszlány (Komárom), Jankó Miklós (44), 1952.10
Q: "Tempo guisto" 1/4=110
M:4/4
L:1/4
K:Eb
c/c/G/G/ F/G/C/D/ | E>F E<D | C2 C z | 
c/c/c/d/ c<B | G<c BA | G2 G z | 
c/c/c/d/ c<B | G<c BA | G2 B z | 
c/c/G/G/ F/G/C/D/ | E>F E<D | C2 C z | 

